src/status/22/clipit-trayicon.svg

<svg xmlns="http://www.w3.org/2000/svg" width="22" height="22"><path d="M15 9.4H7V7.8h8m0 4.8H7V11h8m-2.4 4.8H7v-1.6h5.6M11 4.6a.8.8 0 01.8.8.8.8 0 01-.8.8.8.8 0 01-.8-.8.8.8 0 01.8-.8m5.6 0h-3.344A2.408 2.408 0 0011 3c-1.04 0-1.92.672-2.256 1.6H5.4a1.6 1.6 0 00-1.6 1.6v11.2A1.6 1.6 0 005.4 19h11.2a1.6 1.6 0 001.6-1.6V6.2a1.6 1.6 0 00-1.6-1.6z" fill="#fff"/></svg>

<?xml version="1.0" encoding="UTF-8" standalone="no"?>
<svg
   xmlns:dc="http://purl.org/dc/elements/1.1/"
   xmlns:cc="http://creativecommons.org/ns#"
   xmlns:rdf="http://www.w3.org/1999/02/22-rdf-syntax-ns#"
   xmlns:svg="http://www.w3.org/2000/svg"
   xmlns="http://www.w3.org/2000/svg"
   xmlns:sodipodi="http://sodipodi.sourceforge.net/DTD/sodipodi-0.dtd"
   xmlns:inkscape="http://www.inkscape.org/namespaces/inkscape"
   version="1.1"
   width="22"
   height="22"
   viewBox="0 0 22 22"
   id="svg2"
   inkscape:version="0.91 r13725"
   sodipodi:docname="clipit-trayicon.svg">
  <metadata
     id="metadata10">
    <rdf:RDF>
      <cc:Work
         rdf:about="">
        <dc:format>image/svg+xml</dc:format>
        <dc:type
           rdf:resource="http://purl.org/dc/dcmitype/StillImage" />
        <dc:title></dc:title>
      </cc:Work>
    </rdf:RDF>
  </metadata>
  <defs
     id="defs8" />
  <sodipodi:namedview
     pagecolor="#ffffff"
     bordercolor="#666666"
     borderopacity="1"
     objecttolerance="10"
     gridtolerance="10"
     guidetolerance="10"
     inkscape:pageopacity="0"
     inkscape:pageshadow="2"
     inkscape:window-width="640"
     inkscape:window-height="480"
     id="namedview6"
     showgrid="false"
     inkscape:zoom="27.458333"
     inkscape:cx="5.5174507"
     inkscape:cy="12"
     inkscape:current-layer="svg2" />
  <path
     d="m 15,9.4 -8,0 0,-1.6 8,0 m 0,4.8 -8,0 0,-1.6 8,0 m -2.4,4.8 -5.6,0 0,-1.6 5.6,0 M 11,4.6 A 0.8,0.8 0 0 1 11.8,5.4 0.8,0.8 0 0 1 11,6.2 0.8,0.8 0 0 1 10.2,5.4 0.8,0.8 0 0 1 11,4.6 m 5.6,0 -3.344,0 C 12.92,3.672 12.04,3 11,3 9.96,3 9.08,3.672 8.744,4.6 L 5.4,4.6 A 1.6,1.6 0 0 0 3.8,6.2 l 0,11.2 A 1.6,1.6 0 0 0 5.4,19 l 11.2,0 a 1.6,1.6 0 0 0 1.6,-1.6 l 0,-11.2 A 1.6,1.6 0 0 0 16.6,4.6 Z"
     id="path4"
     style="fill:#ffffff;fill-opacity:1"
     inkscape:connector-curvature="0" />
</svg>
